cy/curve-chart-solid-badged.svg

<svg viewBox="0 0 36 36" xmlns="http://www.w3.org/2000/svg" height="1em" width="1em">
  <path class="clr-i-solid--badged clr-i-solid-path-1--badged" d="M34 12.34V29a2 2 0 0 1-2 2H4a2 2 0 0 1-2-2V7a2 2 0 0 1 2-2h18.57a7.44 7.44 0 0 0 6.74 8.46l1.01.02A7.45 7.45 0 0 0 34 12.34ZM13 12c1.817 0 2.674 1.499 4.039 6.275.774 2.709 1.162 3.843 1.843 5.034C19.87 25.038 21.205 26 23 26h6a1 1 0 0 0 0-2h-6c-1.817 0-2.674-1.499-4.038-6.275-.774-2.709-1.163-3.843-1.844-5.034C16.13 10.962 14.795 10 13 10H7a1 1 0 0 0 0 2Z"/>
  <circle class="clr-i-solid--badged clr-i-solid-path-2--badged clr-i-badge" cx="30" cy="6" r="5"/>
  <path fill="none" d="M0 0h36v36H0z"/>
</svg>

<svg version="1.1" viewBox="0 0 36 36" preserveAspectRatio="xMidYMid meet" xmlns="http://www.w3.org/2000/svg" height="1em" width="1em">
  <path class="clr-i-solid--badged clr-i-solid-path-1--badged" d="M 34 12.34 L 34 29 C 34 30.105 33.105 31 32 31 L 4 31 C 2.896 31 2 30.105 2 29 L 2 7 C 2 5.896 2.896 5 4 5 L 22.57 5 C 21.969 9.233 25.05 13.1 29.31 13.46 L 30.32 13.48 C 31.626 13.429 32.895 13.036 34 12.34 Z M 13 12 C 14.817 12 15.674 13.499 17.039 18.275 C 17.813 20.984 18.201 22.118 18.882 23.309 C 19.87 25.038 21.205 26 23 26 L 29 26 C 29.552 26 30 25.552 30 25 C 30 24.448 29.552 24 29 24 L 23 24 C 21.183 24 20.326 22.501 18.962 17.725 C 18.188 15.016 17.799 13.882 17.118 12.691 C 16.13 10.962 14.795 10 13 10 L 7 10 C 6.448 10 6 10.448 6 11 C 6 11.552 6.448 12 7 12 Z"/>
  <circle class="clr-i-solid--badged clr-i-solid-path-2--badged clr-i-badge" cx="30" cy="6" r="5"/>
  <rect x="0" y="0" width="36" height="36" fill-opacity="0"/>
</svg>
